src/components/00-materials/images-raw/Breakdown Truck.svg

<svg width="96" height="96" viewBox="0 0 96 96" fill="none" xmlns="http://www.w3.org/2000/svg">
<path d="M30.24 67H62.76M32 72H61H32Z" stroke="#00008F" stroke-width="2" stroke-linecap="round" stroke-linejoin="round"/>
<path d="M24 80C28.4183 80 32 76.4183 32 72C32 67.5817 28.4183 64 24 64C19.5817 64 16 67.5817 16 72C16 76.4183 19.5817 80 24 80Z" stroke="#00008F" stroke-width="2" stroke-linecap="round" stroke-linejoin="round"/>
<path d="M24 75C25.6569 75 27 73.6569 27 72C27 70.3431 25.6569 69 24 69C22.3431 69 21 70.3431 21 72C21 73.6569 22.3431 75 24 75Z" stroke="#00008F" stroke-width="2" stroke-linecap="round" stroke-linejoin="round"/>
<path d="M69 80C73.4183 80 77 76.4183 77 72C77 67.5817 73.4183 64 69 64C64.5817 64 61 67.5817 61 72C61 76.4183 64.5817 80 69 80Z" stroke="#00008F" stroke-width="2" stroke-linecap="round" stroke-linejoin="round"/>
<path d="M69 75C70.6569 75 72 73.6569 72 72C72 70.3431 70.6569 69 69 69C67.3431 69 66 70.3431 66 72C66 73.6569 67.3431 75 69 75Z" stroke="#00008F" stroke-width="2" stroke-linecap="round" stroke-linejoin="round"/>
<path d="M77 72H86.5C87.163 72 87.7989 71.7366 88.2678 71.2678C88.7366 70.7989 89 70.163 89 69.5C89 68.837 88.7366 68.2011 88.2678 67.7322C87.7989 67.2634 87.163 67 86.5 67H75.24M16 72H10.5C9.83696 72 9.20107 71.7366 8.73223 71.2678C8.26339 70.7989 8 70.163 8 69.5C8 68.837 8.26339 68.2011 8.73223 67.7322C9.20107 67.2634 9.83696 67 10.5 67H17.76M87 67V54L79.77 26C79.5484 25.1419 79.0481 24.3816 78.3477 23.8386C77.6472 23.2956 76.7863 23.0007 75.9 23H61C59.9391 23 58.9217 23.4214 58.1716 24.1716C57.4214 24.9217 57 25.9391 57 27V67" stroke="#00008F" stroke-width="2" stroke-linecap="round" stroke-linejoin="round"/>
<path d="M65 52H67M57 58H13C12.2044 58 11.4413 58.3161 10.8787 58.8787C10.3161 59.4413 10 60.2044 10 61V67M20 16L40 58H53L27.47 18.34C27.0202 17.6242 26.3963 17.0341 25.6566 16.6248C24.9168 16.2156 24.0854 16.0006 23.24 16H20ZM20 16V41C20.7023 40.9993 21.3924 41.1835 22.001 41.5341C22.6095 41.8847 23.115 42.3894 23.4667 42.9973C23.8183 43.6053 24.0036 44.2951 24.0041 44.9974C24.0045 45.6998 23.8201 46.3898 23.4692 46.9982C23.1184 47.6066 22.6135 48.1119 22.0054 48.4633C21.3973 48.8147 20.7074 48.9998 20.0051 49C19.3028 49.0002 18.6128 48.8154 18.0045 48.4644C17.3963 48.1133 16.8912 47.6082 16.54 47M85.19 47H65V34C65 32.9391 65.4214 31.9217 66.1716 31.1716C66.9217 30.4214 67.9391 30 69 30H80.81L85.19 47ZM87 56H84C83.2044 56 82.4413 56.3161 81.8787 56.8787C81.3161 57.4413 81 58.2044 81 59C81 59.7956 81.3161 60.5587 81.8787 61.1213C82.4413 61.6839 83.2044 62 84 62H87V56Z" stroke="#00008F" stroke-width="2" stroke-linecap="round" stroke-linejoin="round"/>
</svg>

<svg width="96" height="96" viewBox="0 0 96 96" fill="none" xmlns="http://www.w3.org/2000/svg"><path d="M30.24 67h32.52M32 72h29-29zM24 80a8 8 0 100-16 8 8 0 000 16z" stroke="#00008F" stroke-width="2" stroke-linecap="round" stroke-linejoin="round"/><path d="M24 75a3 3 0 100-6 3 3 0 000 6zM69 80a8 8 0 100-16 8 8 0 000 16z" stroke="#00008F" stroke-width="2" stroke-linecap="round" stroke-linejoin="round"/><path d="M69 75a3 3 0 100-6 3 3 0 000 6zM77 72h9.5a2.5 2.5 0 000-5H75.24M16 72h-5.5a2.5 2.5 0 010-5h7.26M87 67V54l-7.23-28a4 4 0 00-3.87-3H61a4 4 0 00-4 4v40" stroke="#00008F" stroke-width="2" stroke-linecap="round" stroke-linejoin="round"/><path d="M65 52h2m-10 6H13a3 3 0 00-3 3v6m10-51l20 42h13L27.47 18.34A5.002 5.002 0 0023.24 16H20zm0 0v25a4 4 0 11-3.46 6m68.65 0H65V34a4 4 0 014-4h11.81l4.38 17zM87 56h-3a3 3 0 000 6h3v-6z" stroke="#00008F" stroke-width="2" stroke-linecap="round" stroke-linejoin="round"/></svg>
